
// test



//-- INIT

~test1_init = true;
~test1_initialized = true;

"INIT 01".postln;

//-- PLAY

~test1_play = true;
~test1_playing = true;

"PLAY 01".postln;

//-- STOP

~test1_stop = true;
~test1_playing = false;

"STOP 01".postln;

//-- FREE

~test1_free = true;
~test1_initialized = false;

"FREE 01".postln;